icons/signal.svg

<?xml version="1.0" encoding="UTF-8" standalone="no"?>
<svg
   xmlns:dc="http://purl.org/dc/elements/1.1/"
   xmlns:cc="http://creativecommons.org/ns#"
   xmlns:rdf="http://www.w3.org/1999/02/22-rdf-syntax-ns#"
   xmlns:svg="http://www.w3.org/2000/svg"
   xmlns="http://www.w3.org/2000/svg"
   xmlns:xlink="http://www.w3.org/1999/xlink"
   xmlns:sodipodi="http://sodipodi.sourceforge.net/DTD/sodipodi-0.dtd"
   xmlns:inkscape="http://www.inkscape.org/namespaces/inkscape"
   version="1.1"
   preserveAspectRatio="xMidYMid meet"
   viewBox="0 0 85.333282 85.333282"
   width="5.3333302pc"
   height="5.3333302pc"
   id="svg22"
   sodipodi:docname="signal.svg"
   inkscape:version="1.0.2-2 (e86c870879, 2021-01-15)">
  <metadata
     id="metadata26">
    <rdf:RDF>
      <cc:Work
         rdf:about="">
        <dc:format>image/svg+xml</dc:format>
        <dc:type
           rdf:resource="http://purl.org/dc/dcmitype/StillImage" />
        <dc:title></dc:title>
      </cc:Work>
    </rdf:RDF>
  </metadata>
  <sodipodi:namedview
     pagecolor="#ffffff"
     bordercolor="#666666"
     borderopacity="1"
     objecttolerance="10"
     gridtolerance="10"
     guidetolerance="10"
     inkscape:pageopacity="0"
     inkscape:pageshadow="2"
     inkscape:window-width="1366"
     inkscape:window-height="705"
     id="namedview24"
     showgrid="false"
     units="pc"
     inkscape:zoom="5.9441164"
     inkscape:cx="49.969216"
     inkscape:cy="43.104402"
     inkscape:window-x="-8"
     inkscape:window-y="-8"
     inkscape:window-maximized="1"
     inkscape:current-layer="svg22" />
  <defs
     id="defs4">
    <path
       d="m 748,40 c 130.34,0 236,105.66 236,236 0,141.6 0,330.4 0,472 0,130.34 -105.66,236 -236,236 -141.6,0 -330.4,0 -472,0 C 145.66,984 40,878.34 40,748 40,606.4 40,417.6 40,276 40,145.66 145.66,40 276,40 c 141.6,0 330.4,0 472,0 z"
       id="cBtLMYpzY" />
    <path
       d="m 441.38,226.5 c -28.7,7.09 -56.17,18.46 -81.49,33.74 -1.56,-2.61 -14.02,-23.48 -15.58,-26.09 27.87,-16.88 58.15,-29.41 89.79,-37.15 1.46,5.9 6.56,26.55 7.28,29.5 z m 141.24,0 c 28.7,7.09 56.17,18.46 81.49,33.74 1.58,-2.61 14.19,-23.48 15.76,-26.09 C 651.93,217.29 621.6,204.76 589.9,197 c -1.46,5.9 -6.56,26.55 -7.28,29.5 z M 234.15,344.22 c -16.86,27.91 -29.39,58.21 -37.15,89.88 2.95,0.73 26.55,6.56 29.5,7.28 7.09,-28.7 18.46,-56.17 33.74,-81.49 -5.22,-3.13 -20.88,-12.54 -26.09,-15.67 z m -12.91,123.71 c -3,-0.46 -27.05,-4.14 -30.05,-4.6 -4.89,32.23 -4.89,65.02 0,97.25 3,-0.45 27.05,-4.06 30.05,-4.51 -2.21,-14.59 -3.32,-29.32 -3.32,-44.07 0,-14.75 1.11,-29.48 3.32,-44.07 z m 442.87,295.83 c -25.28,15.29 -52.72,26.67 -81.4,33.74 0.73,2.95 6.55,26.55 7.28,29.5 31.61,-7.82 61.85,-20.37 89.7,-37.24 -3.12,-5.2 -14.02,-23.4 -15.58,-26 z M 802.76,556.07 c 3,0.45 27.05,4.06 30.05,4.51 4.89,-32.23 4.89,-65.02 0,-97.25 -3,0.46 -27.05,4.14 -30.05,4.6 2.21,14.59 3.32,29.32 3.32,44.07 0,14.75 -1.11,29.48 -3.32,44.07 z m -5.26,26.45 c -7.07,28.74 -18.45,56.25 -33.74,81.59 2.61,1.57 23.48,14.1 26.09,15.67 16.88,-27.93 29.41,-58.27 37.15,-89.97 -5.9,-1.46 -26.55,-6.56 -29.5,-7.29 z M 556.07,802.76 c -29.21,4.42 -58.93,4.42 -88.14,0 -0.45,3 -4.06,27.05 -4.51,30.05 32.2,4.89 64.96,4.89 97.16,0 -0.9,-6.01 -3.61,-24.04 -4.51,-30.05 z M 748.74,686.42 c -17.52,23.76 -38.53,44.74 -62.32,62.23 1.81,2.45 16.26,22.07 18.07,24.52 26.2,-19.29 49.38,-42.38 68.77,-68.5 -4.91,-3.65 -19.62,-14.6 -24.52,-18.25 z M 686.42,275.26 c 23.79,17.52 44.8,38.53 62.32,62.32 2.45,-1.82 22.07,-16.43 24.52,-18.25 -19.33,-26.15 -42.44,-49.26 -68.59,-68.59 -3.65,4.91 -14.6,19.62 -18.25,24.52 z m -411.16,62.32 c 17.52,-23.79 38.53,-44.8 62.32,-62.32 -1.82,-2.45 -16.43,-22.07 -18.25,-24.52 -26.15,19.33 -49.26,42.44 -68.59,68.59 4.91,3.65 19.62,14.6 24.52,18.25 z m 488.5,22.31 c 15.29,25.28 26.67,52.72 33.74,81.4 2.95,-0.73 26.55,-6.55 29.5,-7.28 -7.76,-31.64 -20.29,-61.92 -37.15,-89.79 0,0 -23.48,14.1 -26.09,15.67 z M 467.93,221.24 c 29.21,-4.42 58.93,-4.42 88.14,0 0.45,-3 4.06,-27.05 4.51,-30.05 -32.2,-4.89 -64.96,-4.89 -97.16,0 0.9,6.01 3.61,24.04 4.51,30.05 z m -177.09,560.04 -62.78,14.57 14.66,-62.78 -29.59,-6.92 c -8.8,37.67 -13.68,58.6 -14.66,62.78 -3.85,16.35 6.28,32.74 22.63,36.59 0.02,0 0.03,0.01 0.05,0.01 4.55,1.01 9.27,1.01 13.83,0 4.18,-0.97 25.11,-5.79 62.78,-14.47 z m -71.44,-82.23 29.68,6.82 c 6.09,-26.11 9.47,-40.61 10.14,-43.51 -14.81,-24.84 -25.84,-51.75 -32.72,-79.84 -2.95,0.73 -26.55,6.56 -29.5,7.29 6.63,26.88 16.67,52.81 29.86,77.16 -0.99,4.27 -3.48,14.97 -7.46,32.08 z m 141.97,65.82 -43.52,10.14 6.92,29.69 c 19.19,-4.49 29.85,-6.97 31.99,-7.47 24.32,13.23 50.26,23.27 77.16,29.87 0.73,-2.95 6.55,-26.55 7.28,-29.5 -28,-6.98 -54.81,-18.07 -79.56,-32.91 -0.03,0.02 -0.13,0.08 -0.27,0.18 z M 512,248.34 c -145.66,0.1 -263.56,118.19 -263.56,263.75 0.08,49.58 14.1,98.14 40.47,140.13 -1.69,7.21 -10.14,43.29 -25.36,108.23 64.89,-15.22 100.93,-23.67 108.14,-25.36 123.26,77.53 286.06,40.57 363.59,-82.6 C 812.81,529.33 775.93,366.53 652.77,288.91 610.61,262.39 561.81,248.33 512,248.34"
       id="aOoWMfVya" />
  </defs>
  <g
     id="g20"
     transform="matrix(0.06779661,0,0,0.06779661,7.9551356,7.9551356)">
    <g
       id="g18">
      <g
         id="g8">
        <use
           xlink:href="#cBtLMYpzY"
           opacity="1"
           fill="#3a76f0"
           fill-opacity="1"
           id="use6"
           x="0"
           y="0"
           width="100%"
           height="100%" />
      </g>
      <g
         id="g16">
        <use
           xlink:href="#aOoWMfVya"
           opacity="1"
           fill="#ffffff"
           fill-opacity="1"
           id="use10"
           x="0"
           y="0"
           width="100%"
           height="100%" />
        <g
           id="g14">
          <use
             xlink:href="#aOoWMfVya"
             opacity="1"
             fill-opacity="0"
             stroke="#000000"
             stroke-width="1"
             stroke-opacity="0"
             id="use12"
             x="0"
             y="0"
             width="100%"
             height="100%" />
        </g>
      </g>
    </g>
  </g>
</svg>

<?xml version="1.0" encoding="UTF-8" standalone="no"?>
<!DOCTYPE svg PUBLIC "-//W3C//DTD SVG 1.1//EN" "http://www.w3.org/Graphics/SVG/1.1/DTD/svg11.dtd">
<svg version="1.1" xmlns="http://www.w3.org/2000/svg" xmlns:xlink="http://www.w3.org/1999/xlink" preserveAspectRatio="xMidYMid meet" viewBox="0 0 1024 1024" width="1024" height="1024"><defs><path d="M748 40C878.34 40 984 145.66 984 276C984 417.6 984 606.4 984 748C984 878.34 878.34 984 748 984C606.4 984 417.6 984 276 984C145.66 984 40 878.34 40 748C40 606.4 40 417.6 40 276C40 145.66 145.66 40 276 40C417.6 40 606.4 40 748 40Z" id="cBtLMYpzY"></path><path d="M441.38 226.5C412.68 233.59 385.21 244.96 359.89 260.24C358.33 257.63 345.87 236.76 344.31 234.15C372.18 217.27 402.46 204.74 434.1 197C435.56 202.9 440.66 223.55 441.38 226.5ZM582.62 226.5C611.32 233.59 638.79 244.96 664.11 260.24C665.69 257.63 678.3 236.76 679.87 234.15C651.93 217.29 621.6 204.76 589.9 197C588.44 202.9 583.34 223.55 582.62 226.5ZM234.15 344.22C217.29 372.13 204.76 402.43 197 434.1C199.95 434.83 223.55 440.66 226.5 441.38C233.59 412.68 244.96 385.21 260.24 359.89C255.02 356.76 239.36 347.35 234.15 344.22ZM221.24 467.93C218.24 467.47 194.19 463.79 191.19 463.33C186.3 495.56 186.3 528.35 191.19 560.58C194.19 560.13 218.24 556.52 221.24 556.07C219.03 541.48 217.92 526.75 217.92 512C217.92 497.25 219.03 482.52 221.24 467.93ZM664.11 763.76C638.83 779.05 611.39 790.43 582.71 797.5C583.44 800.45 589.26 824.05 589.99 827C621.6 819.18 651.84 806.63 679.69 789.76C676.57 784.56 665.67 766.36 664.11 763.76ZM802.76 556.07C805.76 556.52 829.81 560.13 832.81 560.58C837.7 528.35 837.7 495.56 832.81 463.33C829.81 463.79 805.76 467.47 802.76 467.93C804.97 482.52 806.08 497.25 806.08 512C806.08 526.75 804.97 541.48 802.76 556.07ZM797.5 582.52C790.43 611.26 779.05 638.77 763.76 664.11C766.37 665.68 787.24 678.21 789.85 679.78C806.73 651.85 819.26 621.51 827 589.81C821.1 588.35 800.45 583.25 797.5 582.52ZM556.07 802.76C526.86 807.18 497.14 807.18 467.93 802.76C467.48 805.76 463.87 829.81 463.42 832.81C495.62 837.7 528.38 837.7 560.58 832.81C559.68 826.8 556.97 808.77 556.07 802.76ZM748.74 686.42C731.22 710.18 710.21 731.16 686.42 748.65C688.23 751.1 702.68 770.72 704.49 773.17C730.69 753.88 753.87 730.79 773.26 704.67C768.35 701.02 753.64 690.07 748.74 686.42ZM686.42 275.26C710.21 292.78 731.22 313.79 748.74 337.58C751.19 335.76 770.81 321.15 773.26 319.33C753.93 293.18 730.82 270.07 704.67 250.74C701.02 255.65 690.07 270.36 686.42 275.26ZM275.26 337.58C292.78 313.79 313.79 292.78 337.58 275.26C335.76 272.81 321.15 253.19 319.33 250.74C293.18 270.07 270.07 293.18 250.74 319.33C255.65 322.98 270.36 333.93 275.26 337.58ZM763.76 359.89C779.05 385.17 790.43 412.61 797.5 441.29C800.45 440.56 824.05 434.74 827 434.01C819.24 402.37 806.71 372.09 789.85 344.22C789.85 344.22 766.37 358.32 763.76 359.89ZM467.93 221.24C497.14 216.82 526.86 216.82 556.07 221.24C556.52 218.24 560.13 194.19 560.58 191.19C528.38 186.3 495.62 186.3 463.42 191.19C464.32 197.2 467.03 215.23 467.93 221.24ZM290.84 781.28L228.06 795.85L242.72 733.07L213.13 726.15C204.33 763.82 199.45 784.75 198.47 788.93C194.62 805.28 204.75 821.67 221.1 825.52C221.12 825.52 221.13 825.53 221.15 825.53C225.7 826.54 230.42 826.54 234.98 825.53C239.16 824.56 260.09 819.74 297.76 811.06L290.84 781.28ZM219.4 699.05L249.08 705.87C255.17 679.76 258.55 665.26 259.22 662.36C244.41 637.52 233.38 610.61 226.5 582.52C223.55 583.25 199.95 589.08 197 589.81C203.63 616.69 213.67 642.62 226.86 666.97C225.87 671.24 223.38 681.94 219.4 699.05ZM361.37 764.87L317.85 775.01L324.77 804.7C343.96 800.21 354.62 797.73 356.76 797.23C381.08 810.46 407.02 820.5 433.92 827.1C434.65 824.15 440.47 800.55 441.2 797.6C413.2 790.62 386.39 779.53 361.64 764.69C361.61 764.71 361.51 764.77 361.37 764.87ZM512 248.34C366.34 248.44 248.44 366.53 248.44 512.09C248.52 561.67 262.54 610.23 288.91 652.22C287.22 659.43 278.77 695.51 263.55 760.45C328.44 745.23 364.48 736.78 371.69 735.09C494.95 812.62 657.75 775.66 735.28 652.49C812.81 529.33 775.93 366.53 652.77 288.91C610.61 262.39 561.81 248.33 512 248.34" id="aOoWMfVya"></path></defs><g><g><g><use xlink:href="#cBtLMYpzY" opacity="1" fill="#3a76f0" fill-opacity="1"></use></g><g><use xlink:href="#aOoWMfVya" opacity="1" fill="#ffffff" fill-opacity="1"></use><g><use xlink:href="#aOoWMfVya" opacity="1" fill-opacity="0" stroke="#000000" stroke-width="1" stroke-opacity="0"></use></g></g></g></g></svg>
